X:7
T:Mazurka d' Auberge
C:Andy Hornby June 2006
Q:1/4=130
I:abc2nwc
M:3/4
L:1/8
K:G
D GA|B2BA Bd|B3D GA|B2BA Bd|A3G FE|D2FE FG|
[1A2D2FA|DF Ac BA|B3:|[2AD FD dc|B2AG FA|G2G4|
|:Bc BA Bc|B2B3D|Bc BA Bd|A3G FE|D2FE FG|
[1A2D2FA|DF Ac BA|B4-BD:|[2AD FD dc|B2AG FA|G2G4|
%%vskip 2.5cm
